X:1
T:Converte Domine
T:Converte Domine
T:Giovanni Rovetta
T:Source : Motetti concertati---Venetia---A.Vincenti---1639. Editor : André Vierendeels (13/07/15).
T:Notes:  Original clefs : C4, F4, F4 Editorial accidentals above the staff Figures in BC are notated in original print
C:Giovanni Rovetta
%%score [ 1 2 ] { 3 | 4 }
L:1/8
Q:1/4=120
M:4/4
K:C
V:1 treble-8 nm="Tenor" snm="T"
V:2 bass nm="Bass" snm="B"
V:3 treble nm="BC" snm="BC"
V:4 bass 
V:1
 z2 D2 A2 A2 | z2 A2 d4 | ^c8 | z8 | z4 z2 D2 | A2 A2 z2 A2 | d2 d2 z4 | z d c>d _B>A G2 | %8
w: Con- ver- te,|con- ver-|te,||con-|ver- te, con-|ver- te,|con- ver- te Do- mi- ne|
 ^F2 FF G2 A2 | _B3 B A2 d2- | dc B4 cB | A2 _BA G2 GA | F4 z4 | z8 | z8 | z8 | z2 z A GG G>A | %17
w: o- cu- los tu- os|su- per nos, quo-|* ni- am spe- ra-|vi- * * mus in _|te,||||spe- ra- vi- mus in|
 F2 z c BB B>c | A4 z2 AA | ddBB c>c c2 | ^FFFF F2 F>G | G2 A2 _B2 cc |S F2 c4 ^c>d | d4 z d d>^c | %24
w: te, spe- ra- vi- mus in|te et se-|cun- dum mul- ti- tu- di- nem|mi- se- ra- ti- o- nem tu-|a- rum re- spi- ce|nos, re- spi- ce|nos et mi- se-|
 e3 B B4 | A8 | z8 | z2 z f ee e>f | d4 z d c>d | B2 B2 z e d>e | ^c4 d4 | d6 ^c2 | d8 || %33
w: re- re no-|stri||spe- ra- vi- mus in|te et mi- se-|re- re, et mi- se-|re- re|no- *|stri.|
 z2 A2 d3 d | d2 c/B/c/d/ _B4 | A2 c4 ^c2 | d2 d2 z2 A2- | A2 A2 _B2 B2- | B2 c2 G3 G | A8 | z8 | %41
w: Il- lu- mi-|na cor _ _ _ no-|strum De- us|no- ster, De-|* us no- ster|_ mi- se- ri-|cors||
 z8 | z8 | z8 | z FGA _B2 A>B | G2 FF c2 c2 | z cde f2 e>f | d2 ^c>B c2 c2 | d2 cd B3 B | %49
w: |||et pro- pter glo- ri- am|no- mi- nis tu- i,|et pro- pter glo- ri- am|no- mi- nis tu- i|di- ri- ge nos in|
 c2 Bc A2 AA | _B2 AA A2 G2 | A2 ^c>d d2 d2 | z2 d>e e2 e2 | z2 e2 e3 d | d4 z2 A2 | d2 d2 z4 | %56
w: re- qui- em tu- am, in|re- qui- em tu- *|am, De- us no- ster,|De- us no- ster|mi- se- ri-|cors, con-|ver- te,|
 z d c>d _B>A G2 | ^F2 FF G2 A2 | _B3 B A2 d2- | dc B4 cB | A2 _BA G2 GA | F4 z4 | z8 | z8 | z8 | %65
w: con- ver- te Do- mi- ne|o- cu- los tu- os|su- per nos, quo-|* ni- am spe- *|ra- vi- * mus in _|te,||||
 z2 z A G>G GA | F2 z c cccd | A4 z2 AA | ddBB c>c c2 | ^FFFF F2 F>G | G2 A2 _B2 c>c!D.S.! |] z8 | %72
w: spe- ra- vi- mus in|te, spe- ra- vi- mus in|te, et se-|cun- dum mul- ti- tu- di- nem|mi- se- ra- ti- o- num tu-|a- rum re- spi- ce||
 z8 | z8 | z8 | z8 | z8 | z8 | z8 | z8 | z8 | z8 | z8 | z8 |] %84
w: ||||||||||||
V:2
 z8 | z8 | z4 z A,G,A, | F,>E, D,2 ^C,2 C,C, | D,2 A,,2 _B,,3 B,, | A,,4 z4 | %6
w: ||Con- ver- te|Do- mi- ne o- cu- los|tu- os su- per|nos,|
 z D,C,D, _B,,>A,, G,,>G,, | D,D, z D, G,2 G,2 | z8 | z2 D,2 A,2 A,2 | z8 | z8 | %12
w: con- ver- te Do- mi- ne, con-|ver- te, con- ver- te,||con- ver- te,|||
 z2 z F, E,E, E,>F, | D,4 z2 D,D, | A,A,^F,F, G,>G, G,2 | ^C,C,C,C, C,2 C,>D, | %16
w: spe- ra- vi- mus in|te et se-|cun- dum mul- ti- tu- di- nem|mi- se- ra- ti- o- num tu-|
 D,2 A,,2 _B,,2 C,C, | F,,2 z2 z4 | z8 | z8 | z8 | z2 z A, G,>G, G,A, | F,2 z F, E,E, E,>F, | D,8 | %24
w: a- rum re- spi- ce|nos,||||spe- ra- vi- mus in|te, spe- ra- vi- mus in|te,|
 z8 | z2 ^C,4 C,>D, | D,4 z D,C,D, | _B,,2 G,,2 A,,4 | D,2 ^F,4 F,>G, | G,2 ^G,4 G,>A, | %30
w: |re- spi- ce|nos, et mi- se-|re- re no-|stri, re- spi- ce|nos, re- spi- ce|
"^-natural" A,A, G,>A, F,2 D,2 | A,8 | D,8 || z8 | z8 | z8 | z8 | z8 | z8 | z4 z F,G,G, | %40
w: nos et mi- se- re- re|no-|stri.|||||||et pro- pter|
 _B,2 A,>B, G,2 F,F, | C2 C2 C,2 D,E, | F,4 z2 F,2 | _B,,2 B,,A,, C,4 | F,,4 z4 | z4 z C,D,E, | %46
w: glo- ri- am no- mi- nis|tu- i di- ri- ge|nos, in|re- qui- em tu-|am,|et pro- pter|
 F,2 E,>F, D,2 ^C,C, | D,2 D,2 A,2 G,>A, | ^F,3 F, G,2 F,>G, | E,2 E,E, F,2 E,>F, | D,2 C,2 _B,,4 | %51
w: glo- ri- am no- mi- nis|tu- i di- ri- ge|nos in re- qui- em|tu- am, in re- qui- em|tu- * *|
 A,,4 z2 ^F,>G, | G,2 G,2 z2 ^G,>A, |"^-natural" A,2 A,G, A,3 A, | D,4 z4 | %55
w: am, De- us|no- ster, De- us|no- ster mi- se- ri-|cors,|
 z D,C,D, _B,,>A,, G,,G,, | D,D, z D, G,2 G,2 | z8 | z2 D,2 A,2 A,2 | z8 | z8 | %61
w: con- ver- te Do- mi- ne, con-|ver- te, con- ver- te,||con- ver- te,|||
 z2 z F, E,E, E,>F, | D,4 z2 D,D, | A,A,^F,F, G,>G, G,2 | ^C,C,C,C, C,2 C,>D, | %65
w: spe- ra- vi- mus in|te, et se-|cun- dum mul- ti- tu- di- nem|mi- se- ra- ti- o- num tu-|
 D,2 A,,2 _B,,2 C,C, | F,,2 z2 z4 | z8 | z8 | z8 | z2 z A, G,G, G,>A, |] z8 | z8 | z8 | z8 | z8 | %76
w: a- rum re- spi- ce|nos,||||spe- ra- vi- mus in||||||
 z8 | z8 | z8 | z8 | z8 | z8 | z8 | z8 |] %84
w: ||||||||
V:3
 z8 | z8 | z8 | z8 | z8 | z8 | z8 | z8 | z8 | z8 | z8 | z8 | z8 | z8 | z8 | z8 | z8 | z8 | z8 | %19
 z8 | z8 | z8 | z8 | z8 | z8 | z8 | z8 | z8 | z8 | z8 |"^9" z8 | z8 | z8 || z8 | z8 | z8 | z8 | %37
 z8 | z8 | z8 | z8 | z8 | z8 | z8 | z8 | z8 | z8 | z8 | z8 | z8 | z8 | z8 | z8 | z8 | z8 | z8 | %56
 z8 | z8 | z8 | z8 | z8 | z8 | z8 | z8 | z8 | z8 | z8 | z8 | z8 | z8 | z8 |] z8 | z8 | z8 | z8 | %75
 z8 | z8 | z8 | z8 | z8 | z8 | z8 | z8 | z8 |] %84
V:4
 D,8 | z2 D,2 _B,,4 |"^#""^#" A,,6 A,,2 | D,4 ^C,4 | D,2 A,,2 _B,,4 | A,,4 z2 A,2 | %6
"^b""^b""^b" ^F,4 G,4 |"^b" D,4 G,,2 G,2 | ^F,4 G,2 A,2 | _B,4 A,2 ^F,2 |"^6" G,3 F, E,4 | %11
 F,2 _B,,2 C,4 |"^5      6""^7         6" F,3 F, E,4 |"^-natural""^-natural" D,4 z2 D,2 | %14
"^#" A,2 ^F,2 G,4 |"^b" ^C,3 C, C,2 C,2 |"^6" D,2 A,,2 _B,,2 C,2 |"^6""^#" F,,2 C,2 D,2 E,2 | %18
"^#" A,,4 A,4 |"^6" ^F,2 G,2 E,4 | ^F,8 |"^b" G,2 A,2 _B,2 C2 |"^6" F,4 E,4 | D,8 | ^C,2 D,2 E,4 | %25
 A,,2 ^C,4 C,2 |"^-natural" D,6 C,2 | _B,,2 G,,2 A,,4 | D,2 ^F,4 F,2 | G,2 ^G,4 G,2 | %30
"^6" A,3 G, F,2 D,2 | A,8 | D,8 || D,8- | D,2 A,,2 _B,,4 |"^6" F,,4 F,2 E,2 | D,4 D,4- | %37
 D,2 C,2 _B,,4 | A,,4 C,4 | F,,4- F,, F,G,A, | _B,2 A,2 G,2 F,2 | C4 C,2 D,E, | F,4 z2 F,2 | %43
 _B,,2 A,,2 C,4 | F,,F, G,A, _B,2 A,2 | G,2 F,2 CC, D,E, | F,2 E,2 D,2 ^C,2 |"^#" D,4 A,4 | %48
 ^F,4 G,4 |"^6" E,4 F,4 |"^6     6""^7   6" D,2 C,2 _B,,4 |"^#" A,,4 ^F,3 F, | G,4 ^G,3 G, | %53
 A,2 G,2 A,4 | D,4 z2 D,2 |"^b" ^F,4 G,4 |"^b" D,4 G,,2 G,2 | ^F,4 G,2 A,2 | _B,4 A,2 ^F,2 | %59
"^-natural""^6" G,3 F, E,4 | F,2 _B,,2 C,4 | F,3 F, E,4 |"^-natural" D,4 z2 D,2 | %63
"^b" A,2 ^F,2 G,4 | ^C,3 C, C,2 C,2 |"^6" D,2 A,,2 _B,,2 C,2 |"^6""^#" F,,2 C,2 D,2 E,2 | %67
"^#" A,,4 A,4 |"^6" ^F,2 G,2 E,4 | ^F,8 |"^b" G,2 A,2 _B,2 C2 |] z8 | z8 | z8 | z8 | z8 | z8 | z8 | %78
 z8 | z8 | z8 | z8 | z8 | z8 |] %84

